X:1
T:Ave verum corpus
T:Josquin des Pres (1450-1521)
T:Prima Pars
T:Ave verum
C:Josquin des Pres
%%score [ 1 2 3 ]
L:1/8
Q:1/4=144
M:2/2
K:Dmin
V:1 treble nm="Soprano" snm="S"
V:2 treble nm="Alto" snm="A"
V:3 treble-8 nm="Tenor" snm="T"
V:1
 z8 | z8 | c8 | d4 e4- | e2 c2 c4- | c4 f4 | e4 d4- | d4 c4 | z4 f4 | e2 d4 cB | c4 F4 | z4 c4 | %12
w: ||A-|ve ve-|* * rum|_ cor-|pus, na-|* tum|cor-|pus, na- * *|tum _|ex|
 d4 f4 | e3 d e2 d2- | dcdc d2 c2- | c2 BA G4 | F4 f4 | e4 d4 | c4 f4- | f4 e4 | d4 c4- | %21
w: Ma- ri-|a _ _ Vir-||* * * gi-|ne: ex|Ma- ri-|a Vir-|||
 c2 B2 A4 | G3 F G4 | F8- | F8 || z8 | z8 | c8 | d4 e4- | e2 c2 c4- | c4 f4 | e4 d4- | d4 c4 | %33
w: |gi- * *|ne:|_|||Ve-|re pas-|* * sum|_ im-|mo- la-|* tum|
 z4 f4 | e2 d4 cB | c4 F4 | z4 c4 | d4 f4 | e3 d e2 d2 | dcdc d2 c2 | c2 BA G4 | F4 f4 | e4 d4 | %43
w: im-|mo- la- * *|tum _|in|cru- ce|pro _ _ ho-||* * * mi-|ne, in|cru- ce|
 c4 f4- | f4 e4 | d4 c4- | c2 B2 A4 | G3 F G4 | F8- | F8 ||"^Secunda  Pars" z8 | z8 | A6 B2 | %53
w: pro ho-||||mi- * *|ne,|_|||Cu- *|
 c4 d4 | c6 BA | A2 c2 B4 | A6 GF | F4 G4 | A3 G AG B2- | BA A4 G2 | A3 B c2 F2- | F2 ED C2 D2 | %62
w: jus la-|tus _ _|_ _ per-|fo- * *|ra- *|||tum _ _ per-|* fo- * * ra-|
 E4 A4- | A4 G4 | F6 ED | E2 C2 D2 C2 | DC F4 E2 | FGAB c2 d2- | dc A3 B c2- | cB G3 A B2- | %70
w: tum un-|* da|flu- * *|* xit san- *|||||
 BA F3 G A2- | A2 F2 G4 | F8- | F8 || z8 | z8 | A6 B2 | c4 d4 | c6 BA | A2 c2 B4 | A6 GF | F4 G4 | %82
w: |* * gui-|ne:|_|||E- *|sto no-|bis _ _|_ _ prae-|gu- * *|sta- *|
 A3 G AG B2- | BA A4 G2 | A3 B c2 F2- | F2 ED C2 D2 | E4 A4- | A4 G4 | F6 ED | E2 C2 D2 C2 | %90
w: ||tum _ _ prae-|* gu- * * sta-|tum mor-|* tis|in _ _|_ ex- a- *|
 DC F4 E2 | FGAB c2 d2- | dc A3 B c2- | cB G3 A B2- | BA F3 G A2- | A2 F2 G4 | F8- | F8 || c8 | %99
w: |||||* * mi-|ne.|_|O|
 d8 | e6 c2 | c8 | f6 e2 | d3 c d4 | e6 dc | c3 d e2 f2 | e2 f4 ed | c8- | c8 || A3 GAB c2- | %110
w: _|dul- *|cis|o _|pi- * *||||e,|_|O _ _ _ _|
 c2 BA G4 | F6 ED | C4 z2 C2 | DEFG AG A2- | AGAF G4 | FGAB cB cd | e2 f4 e2 | fedc d2 cB | %118
w: _ _ _ _|Je- * *|su Fi-|li _ _ _ _ _ _|_ _ _ _ _|Vir- * * * * * gi- *|nis _ Ma-|ri- * * * * * *|
 AG A4 GF | E8- | E8 |] %121
w: |ae.|_|
V:2
 F8 | G4 A4- | A2 F2 F4- | F4 c4- | c2 BA A3 F | F8 | z4 B4- | B4 A4 | G4 A4 | G8 | A8- | A8 | z8 | %13
w: A-|ve ve-|* * rum|_ ve-||rum|cor-|* pus,|na- *||tum|_||
 G8 | F8 | E8 | F8 | G8 | A6 F2 | F4 G4 | B4 A4- | A2 G2 F4- | F2 ED E4 | F8- | F8 || F8 | G4 A4- | %27
w: ex|Ma-|ri-|a|Vir-|||||* * * gi-|ne:|_|Ve-|re pas-|
 A2 F2 F4- | F4 c4- | c2 BA A3 F | F8 | z4 B4- | B4 A4 | G4 F4 | G8 | A8- | A8 | z8 | G8 | F8 | %40
w: * * sum|_ pas-||sum|im-|* mo-|la- *||tum|_||in|cru-|
 E8 | F8 | G8- | A6 F2 | F4 G4 | B4 A4- | A2 G2 F2- x2 | F2 ED E4 | F8- | F8 || A6 B2 | c4 d4 | %52
w: ce|pro|ho-|||||* * * mi-|ne,|_|Cu- *|jus la-|
 c6 BA | A2 c2 B4 | A6 GF | F4 G4 | A3 B c2 d2- | dc A2 B3 A | F3 E C2 D2- | DC A,2 B,4 | A,4 z4 | %61
w: tus _ _|_ _ per-|fo- * *|ra- *|||||tum|
 A8 | G4 F4- | F2 ED E2 C2 | z2 A4 GF | G2 A2 F2 A2- | A2 GF G4 | F6 ED | F3 E C3 D | E3 F G3 F | %70
w: un-|da flu-|* * * * xit|flu- * *|* xit san- *|||||
 D3 C D3 E | FC F4 E2 | F8- | F8 || A6 B2 | c4 d4 | c6 BA | A2 c2 B4 | A6 GF | F4 G4 | %80
w: |* * * gui-|ne:|_|E- *|sto no-|bis _ _|_ _ prae-|gu- * *|sta- *|
 A3 B c2 d2- | dc A2 B3 A | F3 E C2 D2- | DC A,2 B,4 | A,4 z4 | A8 | G4 F4- | F2 ED E2 C2 | %88
w: ||||tum|mor-||* * * * tis|
 z2 A4 GF | G2 A2 F2 A2- | A2 GF G4 | F6 ED | F3 E C3 D | E3 F G3 F | D3 C D3 E | FC F4 E2 | F8- | %97
w: in _ _|_ ex- a- *||||||* * * mi-|ne.|
 F8 || z8 | F8 | G8 | A6 GF | F4 z4 | B6 A2 | G3 F G4 | A8- | A8- | A8- | A8 || z8 | z8 | %111
w: _||O|_|dul- * *|cis|o _|pi- * *|e,|_|||||
 A3 GAB c2- | c2 BA G4 | F6 ED | C4 z2 C2 | DEFG AG A2- | AG AF G4 | F8- | F8 | G8- | G8 |] %121
w: O _ _ _ _|_ _ _ _|Je- * *|su Fi-|li _ _ _ _ _ _|_ _ Ma- * ri-|||ae.|_|
V:3
 z8 | z8 | z8 | z8 | z8 | z8 | z8 | z8 | z8 | z8 | z8 | z8 | z8 | z8 | z8 | z8 | z8 | z8 | z8 | %19
w: |||||||||||||||||||
 z8 | z8 | z8 | z8 | z8 | z8 || F3 G A2 B2- | BG c3 BAG | F2 f4 e2 | d4 c4- | c2 de f4- | %30
w: ||||||Ve- * * *|* re pas- * * *|||* sum _ im-|
 f2 e2 d4 | c4 B4- | B2 A2 F2 f2 | e2 c2 d4 | c2 B4 AG | F8- | F4 f4- | f2 e2 d4 | c3 B G3 A | %39
w: * mo- la-|tum _|_ _ _ im-|mo- * la-|tum _ _ _|_|* im-|* cru- ce|pro _ _ _|
 B3 A F3 G | A3 B c4 | F2 f3 e d2 | c4 B3 A | F2 f4 e2 | d4 c4 | B3 A F4- | F2 G2 A2 B2 | c3 d c4 | %48
w: ho- * * *|* * mi-|ne, in _ _|cru- ce _|_ pro _|ho- *|||mi- * *|
 F8- | F8 || z8 | z8 | z8 | z8 | z8 | z8 | z8 | z8 | z8 | z8 | z8 | z8 | z8 | z8 | z8 | z8 | z8 | %67
w: ne,|_||||||||||||||||||
 z8 | z8 | z8 | z8 | z8 | z8 | z8 || F6 G2 | A4 B4 | F6 G2 | A2 F2 B3 A | F6 ED | D2 F2 E4 | %80
w: |||||||E- *|sto no-|bis _|_ _ prae- gu-|sta- * *|* * tum|
 z2 F4 ED | D2 F2 E4 | z2 F4 ED | D2 F2 E4 | z2 F4 ED | F3 G A3 B | c3 d/e/ f2 F2- | FGAB c4 | %88
w: prae- gu- *|sta- * tum|prae- gu- *|sta- * tum|mor- * *||* * * * tis|_ _ _ _ _|
 z4 F4 | c3 A B2 A2 | F4 z2 C2 | DEFG A2 B2- | BA F3 G A2- | AB c3 B G2- | GA B3 A F2- | F2 D2 C4 | %96
w: in|_ ex- a- mi-|ne. ex-|a- * * * * *||||* * mi-|
 F8- | F8 || f6 e2 | d8 | c8 | z4 f4- | f2 e2 d2 c2 | B2 A2 G4 | c6 BA | A3 B c2 d2 | c2 d4 cB | %107
w: ne.|_|O _|dul-|cis|o|_ _ _ _|pi- * *||||
 A8- | A8 || z4 f4 | e2 d2 e4 | f4 z2 f2 | e3 d e4 | f2 F3 EFG | ABcd efge | f6 ed | c4 z2 c2 | %117
w: e,|_|O|_ _ _|su Fi-|li _ _|_ Vir- * * *||* gi- *|nis Ma-|
 dcBA B2 A2 | fedc d4 | c8- | c8 |] %121
w: ri- * * * * *||ae.|_|

